symbolic/16x16/status/package-new.svg

<svg xmlns="http://www.w3.org/2000/svg" width="16" height="16"><rect style="fill:#b2bfd9" width="16" height="16" rx=".8" ry=".8"/><path style="fill:#f57f17" d="m8 3 2 3 3 1-2 3v3l-3-2-3 2v-3L3 7l3-1z"/></svg>

<svg xmlns="http://www.w3.org/2000/svg" width="16" height="16" version="1.1">
 <rect style="fill:#b2bfd9" width="16" height="16" x="0" y="0" rx=".8" ry=".8"/>
 <path style="fill:#f57f17" d="M 8,3 10,6 13,7 11,10 V 13 L 8,11 5,13 V 10 L 3,7 6,6 Z"/>
</svg>
